X:0881
T:Patie's Wedding.
M:9/8
L:1/8
Q:3/8=112
I: :: :|
Z:Jack Campin * www.campin.me.uk * 2009
K:A Minor
e|e>dc BcA ^G3      |ABA A^GA Bd>f|e>dc BcA ^G3 |ABA A^GA BHe:|
e|cde  eg^f g2(B/c/)|dBd gBc  dcB |cde  edc  B2B|cBA A^GA BHe:|
<end>
<start>
